X: 1
T: Lazy, The
M: 4/4
L: 1/8
R: reel
K: Amaj
AB|ceec dfga|ecac B2AB|ceec dfga|ecBc AEAB|
ceec d~f3|eaae f2ed|ceec daaf|1ecBc A2:|2ecBc A2cd||
eaae faaf|ecac B2cd|eaae faaf|ecBc ABcd|
eaae faaf|ecac B2ce|f~e3 a~f3|1ecBc A2cd:|2ecBc A2||
